src/assets/img/lock.svg

<svg width="17" height="20" viewBox="0 0 17 20" fill="none" xmlns="http://www.w3.org/2000/svg">
<path d="M8.5 0C5.52165 0 3.09091 2.4813 3.09091 5.5216V7.0992H1.54545C0.691591 7.0992 0 7.80517 0 8.6768V18.1424C0 19.014 0.691591 19.72 1.54545 19.72H15.4545C16.3084 19.72 17 19.014 17 18.1424V8.6768C17 7.80517 16.3084 7.0992 15.4545 7.0992H13.9091V5.5216C13.9091 2.58062 11.6192 0.211848 8.77468 0.0570065C8.68729 0.0210688 8.5942 0.00175114 8.5 0ZM8.5 1.5776C10.6433 1.5776 12.3636 3.33373 12.3636 5.5216V7.0992H4.63636V5.5216C4.63636 3.33373 6.35671 1.5776 8.5 1.5776Z" fill="#A5ADCE"/>
</svg>

<svg xmlns="http://www.w3.org/2000/svg" width="17" height="20" fill="none" viewBox="0 0 17 20"><path fill="#a5adce" d="M8.5 0C5.522 0 3.09 2.481 3.09 5.522v1.577H1.546C.692 7.1 0 7.805 0 8.677v9.465c0 .872.692 1.578 1.545 1.578h13.91c.853 0 1.545-.706 1.545-1.578V8.677c0-.872-.692-1.578-1.546-1.578H13.91V5.522c0-2.941-2.29-5.31-5.134-5.465A.8.8 0 0 0 8.5 0m0 1.578c2.143 0 3.864 1.756 3.864 3.944v1.577H4.636V5.522c0-2.188 1.72-3.944 3.864-3.944"/></svg>
